src/Assets/Icons/play-circle.svg

<svg width="61" height="60" viewBox="0 0 61 60" fill="none" xmlns="http://www.w3.org/2000/svg">
<path d="M30.0222 55.0009C43.8293 55.0009 55.0221 43.808 55.0221 30.0009C55.0221 16.1938 43.8293 5.00098 30.0222 5.00098C16.2151 5.00098 5.02222 16.1938 5.02222 30.0009C5.02222 43.808 16.2151 55.0009 30.0222 55.0009Z" stroke="white" stroke-width="2.81249" stroke-linecap="round" stroke-linejoin="round"/>
<path d="M21.9476 30.576V26.401C21.9476 21.201 25.6226 19.076 30.1226 21.676L33.7476 23.776L37.3726 25.876C41.8726 28.476 41.8726 32.726 37.3726 35.3259L33.7476 37.4259L30.1226 39.5259C25.6226 42.1259 21.9476 40.0009 21.9476 34.801V30.576Z" stroke="white" stroke-width="2.81249" stroke-miterlimit="10" stroke-linecap="round" stroke-linejoin="round"/>
</svg>

<svg width="61" height="60" fill="none" xmlns="http://www.w3.org/2000/svg"><path d="M30.022 55c13.807 0 25-11.192 25-25 0-13.806-11.193-24.999-25-24.999s-25 11.193-25 25 11.193 25 25 25Z" stroke="#fff" stroke-width="2.812" stroke-linecap="round" stroke-linejoin="round"/><path d="M21.948 30.576v-4.175c0-5.2 3.675-7.325 8.175-4.725l3.625 2.1 3.625 2.1c4.5 2.6 4.5 6.85 0 9.45l-3.625 2.1-3.625 2.1c-4.5 2.6-8.175.475-8.175-4.725v-4.225Z" stroke="#fff" stroke-width="2.812" stroke-miterlimit="10" stroke-linecap="round" stroke-linejoin="round"/></svg>
